; generated by PrusaSlicer 2.8.0+MacOS-arm64 on 2024-07-25 at 00:13:21 UTC


;
;
; 

; external perimeters extrusion width = 0.45mm
; perimeters extrusion width = 0.45mm
; infill extrusion width = 0.45mm
; solid infill extrusion width = 0.45mm
; top infill extrusion width = 0.40mm
; first layer extrusion width = 0.42mm

M73 P0 R20
M73 Q0 S20
M201 X1000 Y1000 Z200 E5000 ; sets maximum accelerations, mm/sec^2
M203 X200 Y200 Z12 E120 ; sets maximum feedrates, mm / sec
M204 S1250 T1250 ; sets acceleration (S) and retract acceleration (R), mm/sec^2
M205 X8.00 Y8.00 Z0.40 E4.50 ; sets the jerk limits, mm/sec
M205 S0 T0 ; sets the minimum extruding and travel feed rate, mm/sec

; printing object knob(1).stl id:0 copy 0
; stop printing object knob(1).stl id:0 copy 0

;TYPE:Custom
M862.3 P "MK3S" ; printer model check
M862.1 P0.4 ; nozzle diameter check
M115 U3.14.0 ; tell printer latest fw version
G90 ; use absolute coordinates
M83 ; extruder relative mode
M104 S215 ; set extruder temp
M140 S60 ; set bed temp
M190 S60 ; wait for bed temp
M109 S215 ; wait for extruder temp
G28 W ; home all without mesh bed level
G80 X110.246 Y97.2441 W29.5084 H15.5119 ; mesh bed levelling

G1 Z0.2 F720
G1 Y-3 F1000 ; go outside print area
G92 E0
G1 X60 E9 F1000 ; intro line
G1 X100 E12.5 F1000 ; intro line

G92 E0
M221 S95

; Don't change E values below. Excessive value can damage the printer.
M907 E430 ; set extruder motor current
G21 ; set units to millimeters
G90 ; use absolute coordinates
M83 ; use relative distances for extrusion

M900 K0.05 ; Filament gcode LA 1.5
M900 K30 ; Filament gcode LA 1.0




M107 ; disable fan
;LAYER_CHANGE
;Z:0.2
;HEIGHT:0.2
G1 E-.8 F2100 ; retract
G1 Z.6 F720 ; lift
G1 X111.422 Y98.379 F10800 ; move to first layer point
G1 Z.2 F720 ; move to first layer point
G1 E.8 F2100 ;  ; unretract
M204 S800 ; adjust acceleration
;TYPE:Skirt/Brim
;WIDTH:0.42
G1 F1200
G1 X112.044 Y97.86 E.0254 ; skirt
G1 X113.457 Y97.435 E.04626 ; skirt
G1 X136.541 Y97.434 E.72378 ; skirt
G1 X137.701 Y97.712 E.0374 ; skirt
G1 X138.545 Y98.345 E.03308 ; skirt
G1 X138.945 Y98.833 E.01978 ; skirt
G1 X139.234 Y99.343 E.01838 ; skirt
G1 X139.548 Y100.484 E.03711 ; skirt
G1 X139.536 Y109.617 E.28636 ; skirt
G1 X139.354 Y110.367 E.0242 ; skirt
G1 X139.021 Y111.051 E.02385 ; skirt
G1 X138.545 Y111.656 E.02414 ; skirt
G1 X137.963 Y112.135 E.02363 ; skirt
G1 X136.542 Y112.565 E.04655 ; skirt
G1 X113.459 Y112.566 E.72375 ; skirt
G1 X112.019 Y112.123 E.04724 ; skirt
G1 X111.359 Y111.554 E.02732 ; skirt
G1 X110.853 Y110.832 E.02764 ; skirt
G1 X110.556 Y110.081 E.02532 ; skirt
G1 X110.437 Y109.307 E.02455 ; skirt
G1 X110.446 Y100.549 E.2746 ; skirt
G1 X110.596 Y99.784 E.02444 ; skirt
G1 X110.941 Y99.012 E.02651 ; skirt
G1 X111.385 Y98.427 E.02303 ; skirt
M204 S1000 ; adjust acceleration
G1 X111.385 Y98.427 F10800 ; move to first skirt point
G1 X111.684 Y98.653 ; move to first skirt point
M204 S800 ; adjust acceleration
G1 F1200
G1 X111.694 Y98.64 E.00051 ; skirt
G1 X112.252 Y98.175 E.02277 ; skirt
G1 X113.457 Y97.812 E.03946 ; skirt
G1 X136.541 Y97.812 E.72378 ; skirt
G1 X137.53 Y98.048 E.03188 ; skirt
M73 P1 R20
M73 Q1 S20
G1 X138.318 Y98.652 E.03113 ; skirt
G1 X138.918 Y99.558 E.03407 ; skirt
G1 X139.179 Y100.59 E.03338 ; skirt
G1 X139.165 Y109.549 E.2809 ; skirt
G1 X139.007 Y110.217 E.02152 ; skirt
G1 X138.711 Y110.835 E.02148 ; skirt
G1 X138.285 Y111.382 E.02174 ; skirt
G1 X137.754 Y111.821 E.0216 ; skirt
G1 X136.542 Y112.188 E.03971 ; skirt
G1 X113.459 Y112.189 E.72375 ; skirt
G1 X112.226 Y111.808 E.04046 ; skirt
G1 X111.619 Y111.279 E.02525 ; skirt
G1 X111.164 Y110.613 E.02529 ; skirt
G1 X110.916 Y109.967 E.0217 ; skirt
G1 X110.814 Y109.279 E.02181 ; skirt
G1 X110.822 Y100.579 E.27278 ; skirt
G1 X110.956 Y99.895 E.02185 ; skirt
G1 X111.263 Y99.207 E.02362 ; skirt
G1 X111.648 Y98.701 E.01994 ; skirt
M204 S1000 ; adjust acceleration
;WIPE_START
G1 F8640
G1 X111.684 Y98.653 E-.01385 ; wipe and retract
G1 X111.694 Y98.64 E-.00379 ; wipe and retract
G1 X112.252 Y98.175 E-.16772 ; wipe and retract
G1 X113.457 Y97.812 E-.29059 ; wipe and retract
G1 X114.86 Y97.812 E-.32405 ; wipe and retract
;WIPE_END
G1 Z.6 F720 ; move to first perimeter point
; printing object knob(1).stl id:0 copy 0
G1 X123.624 Y102.722 F10800 ; move to first perimeter point
G1 Z.2 F720 ; move to first perimeter point
M73 P1 R19
G1 E.8 F2100 ;  ; unretract
M204 S800 ; adjust acceleration
;TYPE:Perimeter
;WIDTH:0.419999
G1 F1200
G1 X123.675 Y102.653 E.00269 ; perimeter
G1 X123.999 Y102.53 E.01087 ; perimeter
G1 X124.768 Y102.49 E.02414 ; perimeter
G1 X124.868 Y102.178 E.01027 ; perimeter
G1 X125.231 Y101.949 E.01346 ; perimeter
G1 X127.803 Y101.941 E.08064 ; perimeter
G1 X128.142 Y102.054 E.0112 ; perimeter
G1 X128.325 Y102.289 E.00934 ; perimeter
G1 X128.368 Y102.74 E.0142 ; perimeter
G1 X128.368 Y107.494 E.14906 ; perimeter
G1 X128.325 Y107.711 E.00694 ; perimeter
G1 X128.142 Y107.946 E.00934 ; perimeter
G1 X127.803 Y108.059 E.0112 ; perimeter
G1 X125.328 Y108.059 E.0776 ; perimeter
G1 X124.868 Y107.823 E.01621 ; perimeter
G1 X124.768 Y107.51 E.0103 ; perimeter
G1 X123.999 Y107.47 E.02414 ; perimeter
G1 X123.675 Y107.347 E.01087 ; perimeter
G1 X123.504 Y107.116 E.00901 ; perimeter
G1 X123.463 Y106.905 E.00674 ; perimeter
G1 X123.463 Y103.095 E.11946 ; perimeter
G1 X123.504 Y102.884 E.00674 ; perimeter
G1 X123.588 Y102.77 E.00444 ; perimeter
M204 S1000 ; adjust acceleration
G1 X123.588 Y102.77 F10800 ; move to first perimeter point
G1 X123.889 Y102.992 ; move to first perimeter point
M204 S800 ; adjust acceleration
;TYPE:External perimeter
G1 F1200
G1 X123.911 Y102.948 E.00154 ; perimeter
G1 X124.019 Y102.907 E.00362 ; perimeter
G1 X125.14 Y102.848 E.0352 ; perimeter
G1 X125.14 Y102.507 E.01069 ; perimeter
G1 X125.175 Y102.397 E.00362 ; perimeter
G1 X125.328 Y102.318 E.0054 ; perimeter
G1 X127.803 Y102.318 E.0776 ; perimeter
G1 X127.916 Y102.356 E.00374 ; perimeter
G1 X127.991 Y102.507 E.00529 ; perimeter
G1 X127.991 Y107.494 E.15636 ; perimeter
G1 X127.916 Y107.644 E.00526 ; perimeter
G1 X127.803 Y107.682 E.00374 ; perimeter
G1 X125.328 Y107.682 E.0776 ; perimeter
G1 X125.175 Y107.603 E.0054 ; perimeter
G1 X125.14 Y107.494 E.00359 ; perimeter
G1 X125.14 Y107.152 E.01072 ; perimeter
G1 X124.019 Y107.094 E.0352 ; perimeter
G1 X123.911 Y107.052 E.00363 ; perimeter
G1 X123.84 Y106.905 E.00512 ; perimeter
G1 X123.84 Y103.095 E.11946 ; perimeter
G1 X123.863 Y103.047 E.00167 ; perimeter
M204 S1000 ; adjust acceleration
;WIPE_START
G1 F8640
G1 X123.889 Y102.992 E-.01405 ; wipe and retract
G1 X123.911 Y102.948 E-.01136 ; wipe and retract
G1 X124.019 Y102.907 E-.02667 ; wipe and retract
G1 X125.14 Y102.848 E-.2592 ; wipe and retract
G1 X125.14 Y102.507 E-.07874 ; wipe and retract
G1 X125.175 Y102.397 E-.02665 ; wipe and retract
G1 X125.328 Y102.318 E-.03976 ; wipe and retract
G1 X126.816 Y102.318 E-.34357 ; wipe and retract
;WIPE_END
G1 Z.6 F720 ; move to first perimeter point
G1 X132.376 Y103.437 F10800 ; move to first perimeter point
G1 Z.2 F720 ; move to first perimeter point
G1 E.8 F2100 ;  ; unretract
M204 S800 ; adjust acceleration
G1 F1200
G1 X132.478 Y103.39 E.00352 ; perimeter
G1 X134.522 Y103.39 E.06409 ; perimeter
G1 X134.602 Y103.408 E.00257 ; perimeter
;WIDTH:0.421387
G1 X134.711 Y103.579 E.00638 ; perimeter
;WIDTH:0.422832
G1 X134.711 Y106.438 E.09032 ; perimeter
G1 X134.602 Y106.592 E.00596 ; perimeter
;WIDTH:0.419999
G1 X134.522 Y106.61 E.00257 ; perimeter
G1 X132.478 Y106.61 E.06409 ; perimeter
G1 X132.335 Y106.544 E.00494 ; perimeter
G1 X132.29 Y106.422 E.00408 ; perimeter
G1 X132.29 Y103.579 E.08914 ; perimeter
G1 X132.33 Y103.47 E.00364 ; perimeter
M204 S1000 ; adjust acceleration
;WIPE_START
G1 F8640
G1 X132.376 Y103.437 E-.01307 ; wipe and retract
G1 X132.478 Y103.39 E-.02593 ; wipe and retract
G1 X134.522 Y103.39 E-.47197 ; wipe and retract
G1 X134.602 Y103.408 E-.01893 ; wipe and retract
G1 X134.711 Y103.579 E-.04682 ; wipe and retract
G1 X134.711 Y104.546 E-.22328 ; wipe and retract
;WIPE_END
G1 Z.6 F720 ; move to first perimeter point
G1 X115.355 Y106.525 F10800 ; move to first perimeter point
G1 Z.2 F720 ; move to first perimeter point
G1 E.8 F2100 ;  ; unretract
M204 S800 ; adjust acceleration
;WIDTH:0.421387
G1 F1200
G1 X115.289 Y106.422 E.00385 ; perimeter
G1 X115.289 Y103.579 E.08947 ; perimeter
G1 X115.398 Y103.408 E.00638 ; perimeter
;WIDTH:0.419999
G1 X115.478 Y103.39 E.00257 ; perimeter
G1 X117.522 Y103.39 E.06409 ; perimeter
G1 X117.672 Y103.465 E.00526 ; perimeter
G1 X117.71 Y103.579 E.00377 ; perimeter
G1 X117.71 Y106.422 E.08914 ; perimeter
G1 X117.672 Y106.535 E.00374 ; perimeter
G1 X117.522 Y106.61 E.00526 ; perimeter
G1 X115.478 Y106.61 E.06409 ; perimeter
G1 X115.398 Y106.592 E.00257 ; perimeter
;WIDTH:0.421387
G1 X115.388 Y106.576 E.00059 ; perimeter
M204 S1000 ; adjust acceleration
;WIPE_START
G1 F8640
G1 X115.355 Y106.525 E-.01403 ; wipe and retract
G1 X115.289 Y106.422 E-.02825 ; wipe and retract
G1 X115.289 Y103.579 E-.65646 ; wipe and retract
G1 X115.398 Y103.408 E-.04682 ; wipe and retract
G1 X115.478 Y103.39 E-.01893 ; wipe and retract
G1 X115.632 Y103.39 E-.03551 ; wipe and retract
;WIPE_END
G1 Z.6 F720 ; move to first perimeter point
G1 X134.93 Y103.235 F10800 ; move to first perimeter point
G1 Z.2 F720 ; move to first perimeter point
M73 Q1 S19
G1 E.8 F2100 ;  ; unretract
M204 S800 ; adjust acceleration
;TYPE:Perimeter
;WIDTH:0.419999
G1 F1200
G1 X134.9 Y103.283 E.00177 ; perimeter
G1 X134.763 Y103.067 E.00802 ; perimeter
G1 X134.522 Y103.013 E.00774 ; perimeter
G1 X132.478 Y103.013 E.06409 ; perimeter
G1 X132.229 Y103.071 E.00802 ; perimeter
G1 X132.047 Y103.213 E.00724 ; perimeter
G1 X131.948 Y103.382 E.00614 ; perimeter
G1 X131.913 Y103.579 E.00627 ; perimeter
G1 X131.913 Y106.422 E.08914 ; perimeter
G1 X131.921 Y106.519 E.00305 ; perimeter
G1 X132.047 Y106.787 E.00929 ; perimeter
G1 X132.23 Y106.93 E.00728 ; perimeter
G1 X132.478 Y106.987 E.00798 ; perimeter
G1 X134.522 Y106.987 E.06409 ; perimeter
G1 X134.763 Y106.933 E.00774 ; perimeter
G1 X134.9 Y106.736 E.00752 ; perimeter
G1 X135.037 Y106.933 E.00752 ; perimeter
G1 X135.278 Y106.987 E.00774 ; perimeter
G1 X136.112 Y106.987 E.02615 ; perimeter
G1 X136.111 Y109.113 E.06666 ; perimeter
G1 X113.887 Y109.11 E.69682 ; perimeter
G1 X113.887 Y106.987 E.06657 ; perimeter
G1 X114.722 Y106.987 E.02618 ; perimeter
G1 X114.963 Y106.933 E.00774 ; perimeter
G1 X115.1 Y106.736 E.00752 ; perimeter
G1 X115.237 Y106.933 E.00752 ; perimeter
G1 X115.478 Y106.987 E.00774 ; perimeter
G1 X117.522 Y106.987 E.06409 ; perimeter
G1 X117.788 Y106.921 E.00859 ; perimeter
G1 X117.974 Y106.761 E.00769 ; perimeter
G1 X118.064 Y106.58 E.00634 ; perimeter
G1 X118.087 Y106.422 E.00501 ; perimeter
G1 X118.087 Y103.579 E.08914 ; perimeter
G1 X118.065 Y103.42 E.00503 ; perimeter
G1 X117.974 Y103.239 E.00635 ; perimeter
G1 X117.788 Y103.079 E.00769 ; perimeter
G1 X117.522 Y103.013 E.00859 ; perimeter
G1 X115.478 Y103.013 E.06409 ; perimeter
G1 X115.237 Y103.067 E.00774 ; perimeter
G1 X115.1 Y103.283 E.00802 ; perimeter
G1 X114.963 Y103.067 E.00802 ; perimeter
G1 X114.722 Y103.013 E.00774 ; perimeter
G1 X113.887 Y103.013 E.02618 ; perimeter
G1 X113.888 Y100.89 E.06657 ; perimeter
G1 X136.112 Y100.893 E.69682 ; perimeter
G1 X136.113 Y103.013 E.06647 ; perimeter
M73 P2 R19
M73 Q2 S19
G1 X135.278 Y103.013 E.02618 ; perimeter
G1 X135.037 Y103.067 E.00774 ; perimeter
G1 X134.963 Y103.185 E.00437 ; perimeter
M204 S1000 ; adjust acceleration
G1 X134.963 Y103.185 F10800 ; move to first perimeter point
G1 X135.169 Y103.478 ; move to first perimeter point
M204 S800 ; adjust acceleration
;TYPE:External perimeter
;WIDTH:0.421387
G1 F1200
G1 X135.089 Y103.579 E.00405 ; perimeter
G1 X135.089 Y106.422 E.08947 ; perimeter
G1 X135.198 Y106.592 E.00636 ; perimeter
;WIDTH:0.419999
G1 X135.278 Y106.61 E.00257 ; perimeter
G1 X136.49 Y106.61 E.038 ; perimeter
G1 X136.488 Y109.131 E.07904 ; perimeter
G1 X136.437 Y109.353 E.00714 ; perimeter
G1 X136.345 Y109.49 E.00517 ; perimeter
G1 X113.659 Y109.487 E.7113 ; perimeter
G1 X113.578 Y109.373 E.00438 ; perimeter
G1 X113.51 Y109.158 E.00707 ; perimeter
G1 X113.51 Y106.61 E.07989 ; perimeter
G1 X114.765 Y106.605 E.03935 ; perimeter
;WIDTH:0.422831
G1 X114.911 Y106.438 E.00701 ; perimeter
G1 X114.911 Y103.579 E.09032 ; perimeter
;WIDTH:0.421387
G1 X114.802 Y103.408 E.00638 ; perimeter
;WIDTH:0.419999
G1 X114.722 Y103.39 E.00257 ; perimeter
G1 X113.51 Y103.39 E.038 ; perimeter
G1 X113.511 Y100.872 E.07895 ; perimeter
G1 X113.554 Y100.667 E.00657 ; perimeter
G1 X113.654 Y100.513 E.00576 ; perimeter
G1 X136.349 Y100.516 E.71158 ; perimeter
G1 X136.411 Y100.597 E.0032 ; perimeter
G1 X136.489 Y100.873 E.00899 ; perimeter
G1 X136.49 Y103.39 E.07892 ; perimeter
G1 X135.235 Y103.395 E.03935 ; perimeter
;WIDTH:0.421387
G1 X135.207 Y103.431 E.00144 ; perimeter
M204 S1000 ; adjust acceleration
;WIPE_START
G1 F8640
G1 X135.169 Y103.478 E-.01396 ; wipe and retract
G1 X135.089 Y103.579 E-.02975 ; wipe and retract
G1 X135.089 Y106.422 E-.65646 ; wipe and retract
G1 X135.198 Y106.592 E-.04663 ; wipe and retract
G1 X135.278 Y106.61 E-.01893 ; wipe and retract
G1 X135.426 Y106.61 E-.03427 ; wipe and retract
;WIPE_END
G1 Z.6 F720 ; move to first infill point
G1 X135.286 Y107.15 F10800 ; move to first infill point
G1 Z.2 F720 ; move to first infill point
G1 E.8 F2100 ;  ; unretract
M204 S800 ; adjust acceleration
;TYPE:Solid infill
;WIDTH:0.42653
G1 F1200
G1 X135.773 Y107.637 E.02197 ; infill
G1 X135.772 Y108.179 E.01729 ; infill
G1 X134.853 Y107.26 E.04146 ; infill
G1 X134.728 Y107.304 E.00423 ; infill
G1 X134.377 Y107.327 E.01122 ; infill
G1 X135.772 Y108.721 E.06291 ; infill
G1 X135.772 Y108.774 E.00169 ; infill
G1 X135.281 Y108.773 E.01566 ; infill
G1 X133.835 Y107.327 E.06523 ; infill
G1 X133.292 Y107.327 E.01732 ; infill
G1 X134.739 Y108.773 E.06525 ; infill
G1 X134.196 Y108.773 E.01732 ; infill
G1 X132.58 Y107.157 E.0729 ; infill
M204 S1000 ; adjust acceleration
;WIPE_START
G1 F8640
G1 X134.196 Y108.773 E-.5277 ; wipe and retract
G1 X134.739 Y108.773 E-.12538 ; wipe and retract
G1 X134.289 Y108.323 E-.14692 ; wipe and retract
;WIPE_END
G1 Z.6 F720 ; move to first infill point
G1 X135.942 Y101.839 F10800 ; move to first infill point
G1 Z.2 F720 ; move to first infill point
G1 E.8 F2100 ;  ; unretract
M204 S800 ; adjust acceleration
G1 F1200
G1 X135.336 Y101.233 E.02734 ; infill
G1 X134.793 Y101.233 E.01732 ; infill
G1 X135.773 Y102.212 E.04418 ; infill
G1 X135.773 Y102.675 E.01477 ; infill
G1 X135.694 Y102.676 E.00252 ; infill
G1 X134.25 Y101.232 E.06514 ; infill
G1 X133.708 Y101.232 E.01729 ; infill
G1 X135.157 Y102.682 E.06539 ; infill
G1 X134.899 Y102.756 E.00856 ; infill
G1 X134.729 Y102.697 E.00574 ; infill
G1 X134.617 Y102.684 E.0036 ; infill
G1 X133.165 Y101.232 E.0655 ; infill
G1 X132.623 Y101.232 E.01729 ; infill
G1 X134.066 Y102.676 E.06512 ; infill
G1 X133.527 Y102.679 E.01719 ; infill
G1 X132.08 Y101.232 E.06527 ; infill
G1 X131.538 Y101.232 E.01729 ; infill
G1 X132.987 Y102.682 E.06539 ; infill
G1 X132.447 Y102.684 E.01722 ; infill
G1 X130.995 Y101.232 E.0655 ; infill
G1 X130.452 Y101.232 E.01732 ; infill
G1 X132.025 Y102.805 E.07096 ; infill
G1 X131.787 Y102.99 E.00962 ; infill
G1 X131.743 Y103.065 E.00277 ; infill
G1 X129.91 Y101.232 E.08269 ; infill
G1 X129.367 Y101.232 E.01732 ; infill
G1 X131.593 Y103.457 E.10039 ; infill
G1 X131.573 Y103.565 E.0035 ; infill
G1 X131.573 Y103.981 E.01327 ; infill
G1 X128.825 Y101.232 E.12398 ; infill
G1 X128.282 Y101.232 E.01732 ; infill
G1 X131.573 Y104.523 E.14846 ; infill
G1 X131.573 Y105.066 E.01732 ; infill
G1 X127.57 Y101.062 E.1806 ; infill
M204 S1000 ; adjust acceleration
G1 X127.57 Y101.062 F10800 ; move to first infill point
G1 X127.737 Y101.771 ; move to first infill point
M204 S800 ; adjust acceleration
G1 F1200
G1 X127.197 Y101.231 E.02436 ; infill
G1 X126.654 Y101.231 E.01732 ; infill
G1 X127.024 Y101.602 E.01671 ; infill
G1 X126.482 Y101.602 E.01729 ; infill
G1 X126.112 Y101.231 E.01671 ; infill
